assets/img/braze_icons/share-01-alt.svg

<svg fill="none" height="24" viewBox="0 0 24 24" width="24" xmlns="http://www.w3.org/2000/svg"><g fill="#801ed7"><path d="m11.2929 2.29289c.3905-.39052 1.0237-.39052 1.4142 0l4 4c.3905.39053.3905 1.02369 0 1.41422-.3905.39052-1.0237.39052-1.4142 0l-2.2929-2.2929v9.58579c0 .5523-.4477 1-1 1s-1-.4477-1-1v-9.58579l-2.29289 2.2929c-.39053.39052-1.02369.39052-1.41422 0-.39052-.39053-.39052-1.02369 0-1.41422z"/><path d="m9 12.5343c0-.4982 0-.7472-.08675-.9417-.10047-.2252-.28062-.4054-.50584-.5058-.19447-.0868-.44354-.0868-.94168-.0868-.66977 0-1.22267 0-1.67527.0309-.46928.032-.90338.1005-1.32119.2736-.98011.406-1.75881 1.1847-2.16479 2.1648-.17306.4178-.2416.8519-.27361 1.3212-.03088.4526-.03088 1.0054-.03087 1.6752v.0686c-.00001.6697-.00001 1.2226.03087 1.6752.03201.4693.10055.9034.27361 1.3212.40598.9801 1.18468 1.7588 2.16479 2.1648.41781.1731.85191.2416 1.32119.2736.4526.0309 1.00546.0309 1.67523.0309h9.06861c.6698 0 1.2226 0 1.6752-.0309.4693-.032.9034-.1005 1.3212-.2736.9801-.406 1.7588-1.1847 2.1648-2.1648.1731-.4178.2416-.8519.2736-1.3212.0309-.4526.0309-1.0054.0309-1.6752v-.0686c0-.6698 0-1.2226-.0309-1.6752-.032-.4693-.1005-.9034-.2736-1.3212-.406-.9801-1.1847-1.7588-2.1648-2.1648-.4178-.1731-.8519-.2416-1.3212-.2736-.4526-.0309-1.0054-.0309-1.6752-.0309-.4982 0-.7473 0-.9417.0868-.2252.1004-.4054.2806-.5058.5058-.0868.1944-.0868.4435-.0868.9417v2.4657c0 1.6569-1.3431 3-3 3s-3-1.3431-3-3z"/></g></svg>

<svg width="24" height="24" viewBox="0 0 24 24" fill="none" xmlns="http://www.w3.org/2000/svg">
<path d="M11.2929 2.29289C11.6834 1.90237 12.3166 1.90237 12.7071 2.29289L16.7071 6.29289C17.0976 6.68342 17.0976 7.31658 16.7071 7.70711C16.3166 8.09763 15.6834 8.09763 15.2929 7.70711L13 5.41421L13 15C13 15.5523 12.5523 16 12 16C11.4477 16 11 15.5523 11 15L11 5.41421L8.70711 7.70711C8.31658 8.09763 7.68342 8.09763 7.29289 7.70711C6.90237 7.31658 6.90237 6.68342 7.29289 6.29289L11.2929 2.29289Z" fill="#801ED7"/>
<path d="M9 12.5343C9 12.0361 9 11.7871 8.91325 11.5926C8.81278 11.3674 8.63263 11.1872 8.40741 11.0868C8.21294 11 7.96387 11 7.46573 11C6.79596 11 6.24306 11 5.79046 11.0309C5.32118 11.0629 4.88708 11.1314 4.46927 11.3045C3.48916 11.7105 2.71046 12.4892 2.30448 13.4693C2.13142 13.8871 2.06288 14.3212 2.03087 14.7905C1.99999 15.2431 1.99999 15.7959 2 16.4657V16.5343C1.99999 17.204 1.99999 17.7569 2.03087 18.2095C2.06288 18.6788 2.13142 19.1129 2.30448 19.5307C2.71046 20.5108 3.48916 21.2895 4.46927 21.6955C4.88708 21.8686 5.32118 21.9371 5.79046 21.9691C6.24306 22 6.79592 22 7.46569 22H16.5343C17.2041 22 17.7569 22 18.2095 21.9691C18.6788 21.9371 19.1129 21.8686 19.5307 21.6955C20.5108 21.2895 21.2895 20.5108 21.6955 19.5307C21.8686 19.1129 21.9371 18.6788 21.9691 18.2095C22 17.7569 22 17.2041 22 16.5343V16.4657C22 15.7959 22 15.2431 21.9691 14.7905C21.9371 14.3212 21.8686 13.8871 21.6955 13.4693C21.2895 12.4892 20.5108 11.7105 19.5307 11.3045C19.1129 11.1314 18.6788 11.0629 18.2095 11.0309C17.7569 11 17.2041 11 16.5343 11C16.0361 11 15.787 11 15.5926 11.0868C15.3674 11.1872 15.1872 11.3674 15.0868 11.5926C15 11.787 15 12.0361 15 12.5343V15C15 16.6569 13.6569 18 12 18C10.3431 18 9 16.6569 9 15V12.5343Z" fill="#801ED7"/>
</svg>
